X:181
T:Sceptre. Ru2.181, The
%%VWML:RutherfordVol2-2249-p91-0
F:http://www.vwml.org/record/RutherfordVol2/2249/p91
Z:vmp.Ruairidh Greig 2015 www.village-music-project.org.uk
M:C|
L:1/8
Q:1/4=120
K:Edor
F|E/E/E (BA) BEEF|D/D/D (AF) cDDF|E/E/E "tr"(BA) BEEd|eBdF E/E/E E:|
|:d|e>f"tr"ed BdeB|ABdF DEFd|1efed BdeB|ABdF E/E/E E:|2ecdB cABF|ABdF E/E/E E||
W:The first Man sets to the 2d. Wo. & turns .| The
W:first Wo. does the same with the 2d. Man :| Cross
W:over 2 Cou. .|. Lead up to the Top Foot it & cast
W:off :||: Foot it Corners & turn .|| Foot it the other
W:Corners & turn :|| Lead out each side & turn your Part
W:ner :|
T:White Cockade. Ru2.182, The
B:RUTHERFORD Complete Collection of 200 Country Dances Vol.2; 1759.
Z:vmp.Ruairidh Greig 2015 www.village-music-project.org.uk
M:C|
L:1/8
Q:1/2=100
K:G
GA|B2B2 cBAG|B2d4e2|d2B2 cBAG|B2A4GA|
B2B2 cBAG|A2B2 g2>a2|bage dege|d2B2-B2:|
|:Bc|d2B2g2B2|d2B4 Bc|d2B2g2B2|a2A4GA|
B2B2 cBAG|A2B2 g2>a2|bage dege|d2B2-B2:|
W:The first Cou. Heys Contrary sides .|
W:Hey on your own sides | Foot it to your
W:Partner Clap Hands to her & Clap Hands
W:sides & cast off .|. Foot it again Clap Hand
W:and Clap Hands sides & turn your Partner
